cart-plus.svg

<svg fill="currentColor" viewBox="0 0 24 24"><path d="M11 9h2V6h3V4h-3V1h-2v3H8v2h3M7 18c-1.1 0-2 .9-2 2s.9 2 2 2 2-.9 2-2-.9-2-2-2m10 0c-1.1 0-2 .9-2 2s.9 2 2 2 2-.9 2-2-.9-2-2-2m-9.8-3.2v-.1l.9-1.7h7.4c.7 0 1.4-.4 1.7-1l3.9-7-1.7-1-3.9 7h-7L4.3 2H1v2h2l3.6 7.6L5.2 14c-.1.3-.2.6-.2 1 0 1.1.9 2 2 2h12v-2H7.4c-.1 0-.2-.1-.2-.2"/></svg>

<svg  viewBox="0 0 24 24" fill="currentColor"><path  d="M11 9H13V6H16V4H13V1H11V4H8V6H11M7 18C5.9 18 5 18.9 5 20S5.9 22 7 22 9 21.1 9 20 8.1 18 7 18M17 18C15.9 18 15 18.9 15 20S15.9 22 17 22 19 21.1 19 20 18.1 18 17 18M7.2 14.8V14.7L8.1 13H15.5C16.2 13 16.9 12.6 17.2 12L21.1 5L19.4 4L15.5 11H8.5L4.3 2H1V4H3L6.6 11.6L5.2 14C5.1 14.3 5 14.6 5 15C5 16.1 5.9 17 7 17H19V15H7.4C7.3 15 7.2 14.9 7.2 14.8Z"/></svg>
